X:301
T: NAECHTEN ALS ICH SCHLAFEN GING
N: E0173
O: Europa, Mitteleuropa, Deutschland, Schlesien
R: erzaehlendes Volks - Lied, Sage, Tier - Maerchen, Liebe
M: 3/4
L: 1/8
K: G
D | GDG2G2 | FGA3
A | BAG2A2 | cBA2z
c | BdA3c | BdG3
A | BGd2BG | A2G2z

